X:2519
T:High G Half Doubling Scale
O:Kevin's Tune Generator
Q:1/4=78
K:C
M:4/4
L:1/4
%%MIDI gracedivider 4
%%MIDI gchord
%%MIDI beatstring 
[| G {gf}g A {gf}g | B {gf}g c {gf}g | d {gf}g e {gf}g | f {gf}g  f {gf}g | e {gf}g d {gf}g | c {gf}g B {gf}g | A {gf}g G {gf}g |]

